X:1
T:Anna Thea
M:4/4
L:1/4
K:D
 z B,/2C/2 D/2 B,3/2| F3/2 E/2 D2| D3 z| G G A G| F3 B,| ^D2 F2| G G A G|\
 F B, C B,| F3/2 E/2 D C| B,3 A,| B,2 B,2-| B,4|
